X: 253
T: Old Kentucky
N: "Robinson County" [sp?] handwritten to right of title.
S: Viola Ruth "Pioneer Western Folk Tunes" 1948 p.25 #3
R: polka, reel
Z: 2019 John Chambers <jc:trillian.mit.edu>
N: There's an 8th note missing between the parts; not fixed.
M: 2/4
L: 1/16
K: D
V: 1 name="69"
(dB) |\
A2F2 FEDF | A2F2 F2(dB) | A2F2 FEDF | G2[A2E2] [A2E2](dB) |\
A2F2 FEDF | A2d2 fgfe | d[A3F3] ABAG | F3D D2 ||
|:\
Ad2f eeff | d2f2 [A4F4] | Ad2f fefg | a3e e4 |\
f3a abaf | d2e2f3e | d2A2 ABAG | F2[D2A,2] [D4A,4] :|

%%sep 1 1 500

